common/svg/plans-icon.svg

<svg fill="none" height="21" viewBox="0 0 20 21" width="20" xmlns="http://www.w3.org/2000/svg" xmlns:xlink="http://www.w3.org/1999/xlink"><clipPath id="a"><path d="m4 4.22034h12v12h-12z"/></clipPath><g clip-path="url(#a)"><path d="m10 5.22034 1.545 3.13 3.455.505-2.5 2.43496.59 3.44-3.09-1.625-3.09 1.625.59-3.44-2.5-2.43496 3.455-.505z" stroke="#000" stroke-linecap="round" stroke-linejoin="round" stroke-width="1.75"/></g><rect height="16.4233" rx="3.125" stroke="#000" stroke-width="1.75" width="18.25" x=".875" y="2.00867"/></svg>

<svg width="20" height="21" viewBox="0 0 20 21" fill="none" xmlns="http://www.w3.org/2000/svg">
<g clip-path="url(#clip0)">
<path d="M10 5.22034L11.545 8.35034L15 8.85534L12.5 11.2903L13.09 14.7303L10 13.1053L6.91 14.7303L7.5 11.2903L5 8.85534L8.455 8.35034L10 5.22034Z" stroke="black" stroke-width="1.75" stroke-linecap="round" stroke-linejoin="round"/>
</g>
<rect x="0.875" y="2.00867" width="18.25" height="16.4233" rx="3.125" stroke="black" stroke-width="1.75"/>
<defs>
<clipPath id="clip0">
<rect width="12" height="12" fill="white" transform="translate(4 4.22034)"/>
</clipPath>
</defs>
</svg>
